X:1
T:Title
%%score { ( 1 3 ) | ( 2 4 ) }
L:1/8
Q:1/4=100
M:6/8
K:Bb
V:1 treble nm="Grand Piano"
V:3 treble 
V:2 bass 
V:4 bass 
V:1
 [Fd]2 [Fd] [Fd][Ec][DB] | z3 .c3 | [DF]2 [DB] [DB][Ec][Fd] | [Fc]6 | [Fd]2 [Fd] [Fd][Ec][DB] | %5
w: J.~H.~Burke * * * *|||||
 z3 .c3 | F2 e d2 c | [DB]6 | [DB]2 [DF] [EG]2 [EA] | [DB]6 | [Fd]2 [Fd] [Fd][Ge][Fd] | c6 | %12
w: |||||||
 z3 .d3 | [GB]2 [GB] [GB] [Ge]2 | d2 B c2 A | [DB]6 |] %16
w: ||||
V:2
 [B,,B,]2 [B,,B,] [B,,B,]2 [B,,B,] | [E,B,]2 [E,B,] [E,B,]2 [E,B,E] | %2
 [B,,B,]2 [B,,B,] [B,,B,]2 [B,,B,] | [F,A,]6 | [B,,B,]2 [B,,B,] [B,,B,]2 [B,,B,] | %5
 [E,B,]2 [E,B,] [E,B,]2 [E,B,E] | [F,B,D]2 [F,A,F] [F,B,F]2 [F,E] | [B,,F,]6 | %8
 [B,,F,]2 [B,,B,] [E,B,]2 [C,F,] | [B,,F,]6 | [B,,B,]2 [B,,B,] [B,,B,]2 [B,,B,] | [A,F]6 | %12
 [D,B,]2 [B,,B,] [B,,B,][C,A,][D,B,] | [E,B,]2 [E,B,] [E,B,] [E,B,]2 | %14
 [F,B,F]2 [F,B,D] [F,A,E]2 [F,CE] | [B,,B,]6 |] %16
V:3
 x6 | [GB]2 [GB] G-[GB]G | x6 | x6 | x6 | [GB]2 [GB] G-[GB]G | x6 | x6 | x6 | x6 | x6 | z3 E,3 | %12
 [Ff]2 [Fd] F-[Fc][FB] | x6 | x6 | x6 |] %16
V:4
 x6 | x6 | x6 | x6 | x6 | x6 | x6 | x6 | x6 | x6 | x6 | F,3 z3 | x6 | x6 | x6 | x6 |] %16

